build/img/icons/close.svg

<svg width="10" height="10" viewBox="0 0 10 10" fill="none" xmlns="http://www.w3.org/2000/svg">
<path fill-rule="evenodd" clip-rule="evenodd" d="M0.292893 0.292893C0.683417 -0.0976311 1.31658 -0.0976311 1.70711 0.292893L9.70711 8.29289C10.0976 8.68342 10.0976 9.31658 9.70711 9.70711C9.31658 10.0976 8.68342 10.0976 8.29289 9.70711L0.292893 1.70711C-0.0976311 1.31658 -0.0976311 0.683417 0.292893 0.292893Z" fill="#535257"/>
<path fill-rule="evenodd" clip-rule="evenodd" d="M9.70711 0.292893C10.0976 0.683417 10.0976 1.31658 9.70711 1.70711L1.70711 9.70711C1.31658 10.0976 0.683418 10.0976 0.292893 9.70711C-0.0976309 9.31658 -0.0976309 8.68342 0.292893 8.29289L8.29289 0.292893C8.68342 -0.0976311 9.31658 -0.0976311 9.70711 0.292893Z" fill="#535257"/>
</svg>

<svg width="10" height="10" fill="none" xmlns="http://www.w3.org/2000/svg">
    <path fill-rule="evenodd" clip-rule="evenodd" d="M.293.293a1 1 0 0 1 1.414 0l8 8a1 1 0 0 1-1.414 1.414l-8-8a1 1 0 0 1 0-1.414z" fill="#535257"/>
    <path fill-rule="evenodd" clip-rule="evenodd" d="M9.707.293a1 1 0 0 1 0 1.414l-8 8A1 1 0 0 1 .293 8.293l8-8a1 1 0 0 1 1.414 0z" fill="#535257"/>
</svg>
